icon/cg/sync.svg

<svg viewBox="0 0 24 24" fill="none" xmlns="http://www.w3.org/2000/svg" height="1em" width="1em">
  <path d="M4.56079 10.6418L6.35394 3.94971L8.25402 5.84979C11.7312 3.6588 16.3814 4.07764 19.41 7.1063L17.9958 8.52052C15.7536 6.27827 12.3686 5.87519 9.71551 7.31128L11.2529 8.84869L4.56079 10.6418Z" fill="currentColor"/>
  <path d="M19.4392 13.3581L17.646 20.0502L15.7459 18.1501C12.2688 20.3411 7.61857 19.9223 4.58991 16.8936L6.00413 15.4794C8.24638 17.7217 11.6313 18.1247 14.2844 16.6887L12.747 15.1512L19.4392 13.3581Z" fill="currentColor"/>
</svg>

<svg width="24" height="24" fill="none" xmlns="http://www.w3.org/2000/svg"><path d="M4.56 10.642 6.355 3.95l1.9 1.9c3.477-2.191 8.127-1.772 11.156 1.256l-1.414 1.415a7.003 7.003 0 0 0-8.28-1.21l1.537 1.538-6.692 1.793ZM19.44 13.358l-1.794 6.692-1.9-1.9A9.003 9.003 0 0 1 4.59 16.894l1.414-1.415a7.003 7.003 0 0 0 8.28 1.21l-1.537-1.538 6.692-1.793Z" fill="currentColor"/></svg>
